X:384
T:Sailor's Hornpipe
C:
N:Transcribed by Vance Henry
R:bluegrass
L:1/8
Q:1/4=240
M:4/4
K:G
z6 gf |: "G"g2 G2 G2 dc | BG Bd g2 fg | "A"a2 A2 A2 ag | "D"fe d^c d2 ef | "G"gf ed ed cB | 
"C"cB AG AG FE | "D"DG FA GB Ac |1 "G"B2 G2 G2 gf :|2 "G"B2 G2 G2 dc |: "G"Bd gd Bd gd | 
"C"e2 c2 c2 ed | "A"^ce ae ce ae | "D"f2 d2 d2 ef | "G"gf ed ed cB | "C"cB AG AG FE | 
"D"DG FA GB Ac |1 "G"B2 G2 G2 dc :|2 "G"B2 G2 G2 ba |: "Harmony ""G"b2 B2 B2 ge | 
dB dg b2 ab | "A"^c'2 ^c2 c2 c'b | "D"ag f2 f2 ga | "G"ba gf gf ed | "C"ed cB cB AG | 
"D"FB Ac Bd ce |1 "G"d2 B2 B2 ba :|2 "G"d2 B2 B2 ge |: "G"dg bg dg bg | "C"g2 e2 e2 gf | 
"A"ea ^c'a ea c'e | "D"a2 f2 f2 ga | "G"ba gf gf ed | "C"ed cB cB AG | "D"FB Ac Bd ce | 
|1 "G"d2 B2 B2 ge :|2 "G"d2 B2 B4 | "Ending"G,B, A,C B,D CE | DG FA GB Ac | Bd ce dg fa | 
g4 [b4g4D4G,4] | 


